X: 1
T: Bruce Frazer of Strathkinnes
C: Murial A. Johnstone
R: strathspey
Z: 2018 John Chambers <jc:trillian.mit.edu>
M: C
L: 1/8
K: F
|:\
"F"A<c C>A "C"G<A "A/F"F>G | "F"A<c F>a "Bb"g>f d<f |\
"F"A<c C>A "C"G<A "A/F"F>A | "Bb"G<A "Gm"F>D "C7"G>F G<A ||
"F"A<C C>A "C"G<A "A/F"F>G | "F"A<c F>a "Bb"g>f d<f |\
"A/F"c<f "Bb"B>A "C7"G<A "Dm"F>C | "Gm7"D<F "C7"A>G "F"F2- Fz |]
"F"A,<C F<A "Bb"B>c d>c | "A/F"c<C "G/C7"B<C "F"A>c "E/C"d>e |\
"Dm"f<F "C"e<F "Bb"d>f g>a | "Gm"b<B a<b "C7"g>f e>d ||
"A/F"c<C C>A "C"G<A "Dm"F>e | "Dm"(3fed "C"(3edc "Bb"d>c "A/F"A<c |\
"Bb"d<f "Gm"B>A "C7"G<A "Dm"F>C| "Gm7"D<F "C7"A>G "F"F2- Fz :|
